/* XPM */
static char *product_logo_32[] = {
/* columns rows colors chars-per-pixel */
"32 32 164 2 ",
"   c None",
".  c #054455",
"X  c #094555",
"o  c #0C4856",
"O  c #054759",
"+  c #064A5D",
"@  c #0B4C5B",
"#  c #104F5C",
"$  c #0D505F",
"%  c #12525F",
"&  c #0E4463",
"*  c #074E61",
"=  c #0B4A65",
"-  c #0C4D69",
";  c #124564",
":  c #124967",
">  c #134C69",
",  c #194E6A",
"<  c #075166",
"1  c #0C5264",
"2  c #06556B",
"3  c #0B536D",
"4  c #07596F",
"5  c #0C5A6D",
"6  c #115562",
"7  c #125967",
"8  c #12546C",
"9  c #1A526D",
"0  c #125C6B",
"q  c #075770",
"w  c #0A5770",
"e  c #065B72",
"r  c #095B72",
"t  c #145670",
"y  c #1A5670",
"u  c #135C73",
"i  c #195A72",
"p  c #0F6176",
"a  c #0D6479",
"s  c #136276",
"d  c #1B6277",
"f  c #136579",
"g  c #1C6478",
"h  c #12697C",
"j  c #1A697D",
"k  c #25627B",
"l  c #246B7E",
"z  c #286379",
"x  c #30667F",
"c  c #396C7B",
"v  c #0B6A85",
"b  c #156D82",
"n  c #1C7284",
"m  c #127996",
"M  c #236B81",
"N  c #2D6B81",
"B  c #257382",
"V  c #2A7484",
"C  c #2B7985",
"Z  c #2E7F8A",
"A  c #247A89",
"S  c #3F7382",
"D  c #3F7C8D",
"F  c #3B7E91",
"G  c #40778D",
"H  c #457A89",
"J  c #4B7C8A",
"K  c #417B90",
"L  c #32878E",
"P  c #2F8B94",
"I  c #288E9C",
"U  c #308790",
"Y  c #3F8194",
"T  c #2D909B",
"R  c #399195",
"E  c #359399",
"W  c #3D9698",
"Q  c #3C9A9C",
"!  c #1380A0",
"~  c #1B90AF",
"^  c #2F96A2",
"/  c #3097A1",
"(  c #418093",
")  c #4D879A",
"_  c #4C8A9C",
"`  c #528594",
"'  c #429F9D",
"]  c #64919F",
"[  c #6393A5",
"{  c #6298A7",
"}  c #6597A8",
"|  c #6D9EAD",
" . c #7299AA",
".. c #45A8A4",
"X. c #4BB1AB",
"o. c #49B7B3",
"O. c #43B7B8",
"+. c #4BBDB8",
"@. c #4BB9B3",
"#. c #53BDB1",
"$. c #7DA9B7",
"%. c #7EAAB8",
"&. c #51C3B9",
"*. c #57C8BA",
"=. c #5ACCBC",
"-. c #3CBECC",
";. c #21AFDB",
":. c #26AED3",
">. c #46BFC1",
",. c #4FC7C1",
"<. c #4FCAC4",
"1. c #46C1C4",
"2. c #5ACFC0",
"3. c #5ED3C0",
"4. c #61D6C1",
"5. c #69E3C9",
"6. c #5BD5E3",
"7. c #5FD8E2",
"8. c #63DBE1",
"9. c #7BDCEA",
"0. c #89A9B3",
"q. c #8AADBC",
"w. c #8BB1BE",
"e. c #8AB4C1",
"r. c #97BCC7",
"t. c #9FBDC7",
"y. c #96BCC8",
"u. c #A1C1CC",
"i. c #B2CBD5",
"p. c #B6D1DA",
"a. c #BDD7DF",
"s. c #81DDEB",
"d. c #83E3E7",
"f. c #84E2EA",
"g. c #8DE6E8",
"h. c #9DE4F0",
"j. c #A6EBEE",
"k. c #C1D7DF",
"l. c #C8DAE2",
"z. c #D0E0E7",
"x. c #D0E2E9",
"c. c #D3E3EA",
"v. c #DBE9EE",
"b. c #DFEFF5",
"n. c #E2EEF3",
"m. c #E6F1F6",
"M. c #E0F0F5",
"N. c #E8F2F7",
"B. c #E3F6FB",
"V. c #EFF7FB",
"C. c #EBF4F8",
"Z. c #E6F8FC",
"A. c #F0F7FC",
"S. c #F3F9FE",
"D. c #F5FBFF",
"F. c #F6FBFF",
"G. c #F7FDFF",
"H. c #F6FCFF",
"J. c #F4FBFF",
"K. c #F8FDFF",
"L. c #F9FDFF",
"P. c #F9FEFF",
"I. c #F8FEFF",
"U. c #F8FDFF",
/* pixels */
"                              : :                               ",
"                      > 9 9 y y y y y u 8                       ",
"                ; , 9 9 > : : & = = - 8 u u u 3                 ",
"              : 9 , ; & & & y B U E E P A j f s u               ",
"            , 9 ; & & > C X.=.2.&.@.o.+.,.<.O.T n s             ",
"          , 9 ; & & l #.3...B u 3 - 3 3 u n / 1.1.^ b           ",
"        , 9 ; & : R 4...d = x  . .N 3 3 3 3 3 a I -.:.!         ",
"      : 9 ; & : ' 4.Z - = x l.K.K.l.N 3 3 3 w r w m ;.~ a       ",
"    ; 9 ; & & W 4.B & - - q.K.D.D.K.q.3 w w r r r e v a h r     ",
"    , 9 & & C 4.C = - - k z.G.D.D.G.x.l 2 r r r e e e e f s     ",
"    9 : & 9 *.Q = - - = ] S.D.D.D.D.S.[ 2 r r e e e e e r s     ",
"  > 9 & & R *.t = - - t i.K.D.D.D.D.K.i.u e e e e e e 4 2 s 5   ",
"  9 > & V 5.Q = - - - G m.G.D.C.V.D.G.m.Y e e e e 4 4 2 2 5 0   ",
"  y > & L 5.L - - - 3 q.K.D.K.u.k.K.D.K.e.e e e 4 4 2 2 < 2 0   ",
"  y > = 8 g 3 - 3 3 k x.G.D.V.) $.G.D.G.x.M e 4 2 2 2 < < 1 0   ",
"> y - - - - - 3 3 3 [ D.D.G.n.[ %.S.G.G.D.{ 2 2 2 2 < < * * 0 * ",
"- y - - - - 3 3 3 u i.S.Z.Z.B.B.B.Z.Z.Z.S.i.r 2 2 < < * * * 0 + ",
"  i - - - 3 3 3 2 K M.g.8.8.8.8.7.7.6.6.s.b.D < < < * * + + 7   ",
"  u 3 - 3 3 3 3 3 w.G.j.d.f.f.f.f.f.9.9.h.S.w.< < * * + + + 6   ",
"  u u 3 3 3 3 3 M x.G.D.D.a.y.y.r.r.x.G.D.G.x.k * * + + O $ 6   ",
"  u u 3 3 3 3 2 } S.D.G.N.Y e e 4 2 | D.D.D.D.] + + + O O 6 @   ",
"    f w 3 3 w u i.K.D.K.p.f e 4 2 2 N v.G.D.K.i.6 O O O + 6     ",
"    u s 3 w 2 ( N.G.D.D.| 4 4 2 2 2 2 t.K.D.G.N.S . O . @ @     ",
"    w f r r r e.S.A.S.c.V 2 2 2 2 < * ` C.A.A.S.0.O . X % X     ",
"      s h r e F _ _ _ F r 2 2 2 < < * 7 H J J J c X . % o       ",
"        f h e e e e 4 2 2 2 3 < < * * + O O . . . . # @         ",
"          h h e e e 4 2 2 3 < < * * + + O O O . . # #           ",
"            h h r 2 2 2 < < < * * + + O O O . X % @             ",
"              p h p 5 < < * * + + O O O O X @ % o               ",
"                4 r s 0 5 1 * + + + + @ % % @ X                 ",
"                      5 0 0 0 7 7 6 6 % o                       ",
"                              + +                               "
};
